X:1
T:[ID 4-7va]
T:[ID 4-7va]
T:Bezeichnung standardisiert: Anglaise Angeloise In dieser Quelle auch als: Schwabisch
T:Urheber unbekannt Datum in der hier transkribierten schriftlichen Quelle: 1767
C:Urheber unbekannt
C:Datum in der hier transkribierten schriftlichen Quelle: 1767
L:1/8
M:3/8
K:G
V:1 treble 
V:1
 !arpeggio![DBg]2 b/g/ | dBG | FA d/A/ | BGD | !arpeggio![DBg]2 b/g/ | dBG | FEF | G2 G, :| %8
 Ac e/c/ | dBG | FEF | GDG | Ac e/c/ | dBG | FEF | G2 G, :| %16

